X: 1
T: The Maid On The Green
R: jig
M: 6/8
L: 1/8
K: Gmaj
gfg e2d|Bee dBA|BGG dBG|BAG AB/c/d|
~g3 eGd|BeB dBA|BGG dBA|AGF GA/B/d:|
|:~g3 afd|~g3 a2a|bag agf|gef g2a|
bag agf|~g3 e2d|Bee dBA|AGF GA/B/d:|


Tune 1831	Setting 15261

